X:785
T:Waiting for the Robert E. Lee
C:Lewis F. Muir and L. Wolfe Gilbert, 1912
L:1/4
M:2/2
S:Colin Hume's website,  colinhume.com  - chords can also be printed below the stave.
Q:1/2=120
K:G
"G"Be- ee- | ed B2 | G4- | G4 | "D"E=F- F ^F- | ^FAf2 | e4- | ed e=f |
"D7"^f4 | e3E | d4 | c3_B | "G"=Bd _B=B- | Bd- d_B | "G"=Bd _B=B- | Bd _dc |
"G"Be- ee- | ed B2 | G4- | G4 | "D"E=F- F ^F- | ^FAf2 | e4- | ed e=f |
"D7"^f4 | e4 | de fd | ef3 | de fd | ed e2 | "G"g4- | g4 |]

